!! 00000] TT[WS
!!!OTL: Su ku
!!!ARE: Asia, China,ÿShanxi Pingding
!! Ethnic Group: Han
!! WI, 78 (2)
!!!SCT: J0096
!!!YEM: Copyright 1995, estate of Helmut Schaffrath.
**kern
*ICvox
*Ivox
*M2/4
*k[f#]
*G:
{8dd
8dd
8ee
8dd
=1
8cc
8b
4a
=2
4dd
8e
8g
=3
2a}
=4
{8a
8dd
8b
8dd
=5
8a
8b
8a
8g
=6
8a
8g
8a
8e
=7
2d}
=8
{8a
8b
16a
16b
16a
16g
=9
8e
16g
16g
4d
=10
8ee
8gg
16ee
16gg
16ee
16dd
=11
8cc
16dd
16ee
8dd
8b}
=12
{8a
4a
8b
=13
4dd
8e
8g
=14
2a
=15
8g
8a
8g
8e
=16
2d}
==
!!!AGN: Xiaodiao. Suku
!!!ONB: ESAC (Essen Associative Code) Database: CHINA
!!!AMT: simple duple
!!!AIN: vox
!!!EED: Helmut Schaffrath
!!!EEV: 1.0
*-
